packages/foundations/assets/icons/functional/images/maps/location_arrow_north_14_filled.svg

<svg width="14" height="14" viewBox="0 0 14 14" fill="none" xmlns="http://www.w3.org/2000/svg">
<g clip-path="url(#clip0_2213_4853)">
<path fill-rule="evenodd" clip-rule="evenodd" d="M7.00029 4.82393C7.36378 4.82517 7.52906 5.07688 7.60036 5.26229L10.1938 12.012C10.3035 12.2972 10.1612 12.6174 9.87597 12.7271C9.67186 12.8056 9.44066 12.7565 9.28604 12.6019L7.00029 10.3159L4.71392 12.6023C4.49783 12.8184 4.14747 12.8184 3.93137 12.6023C3.77675 12.4477 3.72769 12.2165 3.80618 12.0124L6.4046 5.26219C6.47586 5.07688 6.61356 4.82264 7.00029 4.82393ZM7.00006 1.23566C7.36825 1.23566 7.6717 1.51281 7.71318 1.86988L7.718 1.95361V3.17547C7.718 3.57199 7.39657 3.89342 7.00006 3.89342C6.63187 3.89342 6.32841 3.61627 6.28694 3.2592L6.28211 3.17547V1.95361C6.28211 1.55709 6.60354 1.23566 7.00006 1.23566Z" fill="#1A1C1F"/>
</g>
<defs>
<clipPath id="clip0_2213_4853">
<rect width="14" height="14" fill="white"/>
</clipPath>
</defs>
</svg>

<svg xmlns="http://www.w3.org/2000/svg" width="14" height="14" fill="none"><g clip-path="url(#a)"><path fill="#1A1C1F" fill-rule="evenodd" d="M7 4.824c.364.001.53.253.6.438l2.594 6.75a.553.553 0 0 1-.908.59L7 10.316l-2.286 2.286a.553.553 0 0 1-.908-.59l2.599-6.75c.07-.185.209-.44.595-.438m0-3.588c.368 0 .672.277.713.634l.005.084v1.221a.718.718 0 0 1-1.431.084l-.005-.084V1.954c0-.397.322-.718.718-.718" clip-rule="evenodd"/></g><defs><clipPath id="a"><path fill="#fff" d="M0 0h14v14H0z"/></clipPath></defs></svg>
